X: 370
T: Back Up and Push
C:Traditional
B: jims roots
L:1/8
Q: 1/4=100
K:C
V:1 
e3dc2|:"F"d4 (A4|A2) e2d2c2|"C"c4 (G4|G2)G2 A2c2|"G"B4 (g4|g2)g2a2g2| "C"e4 [e4g4]-|
|:"F"FFcF FdFF|cFFd FFcF|"C"ccgc cacc|gcca ccgc|
"G"BBgB BaBB|gBBa BBgB|[1 "C"ccgc cacc|_bcca ccgc:|[2 "C"c2 c/B/c/d/ c4||
V:e2g2 
e2d2c2|"F"[f4d4] [F4A4]-|[F2A2]e2d2c2|"C"c4 (G4|G2)G2A2c2|"G"B4 g4-|"C"g2 ag e2|c4 (c4|c2)e2d2c2:|
% abcbook-tune_id 6298c245806f08bf36f98ce3


% abcbook-boost 0
% abcbook-tablature 
% abcbook-transpose 
% abcbook-lastupdated 1654178373234
% abcbook-soundfonts 
% abcbook-repeats 1


